flipperbrain-shield/flipperbrain-shield/flipperbrain-shield-brd.svg

<?xml version="1.0" standalone="no"?>
 <!DOCTYPE svg PUBLIC "-//W3C//DTD SVG 1.1//EN" 
 "http://www.w3.org/Graphics/SVG/1.1/DTD/svg11.dtd"> 
<svg
  xmlns:svg="http://www.w3.org/2000/svg"
  xmlns="http://www.w3.org/2000/svg"
  xmlns:xlink="http://www.w3.org/1999/xlink"
  version="1.1"
  width="68.7070mm" height="53.4670mm" viewBox="0.0000 0.0000 68.7070 53.4670">
<title>SVG Image created as flipperbrain-shield-brd.svg date 2023/07/27 21:20:38 </title>
  <desc>Image generated by PCBNEW </desc>
<g style="fill:#000000; fill-opacity:1.0000;stroke:#000000; stroke-opacity:1.0000;
stroke-linecap:round; stroke-linejoin:round;"
 transform="translate(0 0) scale(1 1)">
</g>
<g style="fill:#000000; fill-opacity:0.0; 
stroke:#000000; stroke-width:0.0000; stroke-opacity:1; 
stroke-linecap:round; stroke-linejoin:round;">
</g>
<g style="fill:#000000; fill-opacity:0.0; 
stroke:#000000; stroke-width:0.1500; stroke-opacity:1; 
stroke-linecap:round; stroke-linejoin:round;">
<path d="M66.1150 12.7750
L68.6550 15.3150
" />
<path d="M0.0750 52.6530
L0.0750 0.8370
" />
<path d="M68.6550 15.3150
L68.6550 49.6050
" />
<path d="M65.3530 53.4150
L0.8370 53.4150
" />
<path d="M0.8370 0.0750
L63.5750 0.0750
" />
<path d="M0.0750 52.6530 A0.7620 0.7620 0.0 0 0 0.8370 53.4150" />
<path d="M68.6550 49.6050
L66.1150 52.1450
" />
<path d="M63.5750 0.0750
L66.1150 2.6150
" />
<path d="M65.3530 53.4150 A0.7620 0.7620 0.0 0 0 66.1150 52.6530" />
<path d="M66.1150 2.6150
L66.1150 12.7750
" />
<path d="M66.1150 52.1450
L66.1150 52.6530
" />
<path d="M0.8370 0.0750 A0.7620 0.7620 0.0 0 0 0.0750 0.8370" />
<g >
</g>
<g >
</g>
<g >
</g>
<g >
</g>
<g >
</g>
<g >
</g>
<g >
</g>
<g >
</g>
<g >
</g>
<g >
</g>
<g >
</g>
<g >
</g>
<g >
</g>
<g >
</g>
<g >
</g>
<g >
</g>
<g >
</g>
<g >
</g>
<g >
</g>
<g >
</g>
<g >
</g>
<g >
</g>
<g >
</g>
<g >
</g>
<g >
</g>
<g >
</g>
<g >
</g>
<g >
</g>
<g >
</g>
<g >
</g>
</g> 
</svg>

<?xml version="1.0" encoding="UTF-8" standalone="no"?>
<svg
   version="1.1"
   width="68.7070mm"
   height="53.4670mm"
   viewBox="0.0000 0.0000 68.7070 53.4670"
   id="svg913"
   sodipodi:docname="flipperbrain-shield-brd.svg"
   inkscape:version="1.2.2 (b0a84865, 2022-12-01)"
   xmlns:inkscape="http://www.inkscape.org/namespaces/inkscape"
   xmlns:sodipodi="http://sodipodi.sourceforge.net/DTD/sodipodi-0.dtd"
   xmlns="http://www.w3.org/2000/svg"
   xmlns:svg="http://www.w3.org/2000/svg">
  <defs
     id="defs917" />
  <sodipodi:namedview
     id="namedview915"
     pagecolor="#ffffff"
     bordercolor="#000000"
     borderopacity="0.25"
     inkscape:showpageshadow="2"
     inkscape:pageopacity="0.0"
     inkscape:pagecheckerboard="0"
     inkscape:deskcolor="#d1d1d1"
     inkscape:document-units="mm"
     showgrid="false"
     inkscape:zoom="1.1678543"
     inkscape:cx="29.11322"
     inkscape:cy="101.46813"
     inkscape:window-width="1728"
     inkscape:window-height="1051"
     inkscape:window-x="0"
     inkscape:window-y="38"
     inkscape:window-maximized="0"
     inkscape:current-layer="svg913" />
  <title
     id="title369">SVG Image created as flipperbrain-shield-brd.svg date 2023/07/27 19:07:57 </title>
  <desc
     id="desc371">Image generated by PCBNEW </desc>
  <g
     style="fill:#000000; fill-opacity:1.0000;stroke:#000000; stroke-opacity:1.0000; stroke-linecap:round; stroke-linejoin:round;"
     transform="translate(0 0) scale(1 1)"
     id="g373" />
  <g
     style="fill:#000000; fill-opacity:0.0;  stroke:#000000; stroke-width:0.0000; stroke-opacity:1;  stroke-linecap:round; stroke-linejoin:round;"
     id="g435">
    <g
       id="g375" />
    <g
       id="g377" />
    <g
       id="g379" />
    <g
       id="g381" />
    <g
       id="g383" />
    <g
       id="g385" />
    <g
       id="g387" />
    <g
       id="g389" />
    <g
       id="g391" />
    <g
       id="g393" />
    <g
       id="g395" />
    <g
       id="g397" />
    <g
       id="g399" />
    <g
       id="g401" />
    <g
       id="g403" />
    <g
       id="g405" />
    <g
       id="g407" />
    <g
       id="g409" />
    <g
       id="g411" />
    <g
       id="g413" />
    <g
       id="g415" />
    <g
       id="g417" />
    <g
       id="g419" />
    <g
       id="g421" />
    <g
       id="g423" />
    <g
       id="g425" />
    <g
       id="g427" />
    <g
       id="g429" />
    <g
       id="g431" />
    <g
       id="g433" />
  </g>
  <g
     style="fill:#000000; fill-opacity:0.0;  stroke:#000000; stroke-width:0.0000; stroke-opacity:1;  stroke-linecap:round; stroke-linejoin:round;"
     id="g497">
    <g
       id="g437" />
    <g
       id="g439" />
    <g
       id="g441" />
    <g
       id="g443" />
    <g
       id="g445" />
    <g
       id="g447" />
    <g
       id="g449" />
    <g
       id="g451" />
    <g
       id="g453" />
    <g
       id="g455" />
    <g
       id="g457" />
    <g
       id="g459" />
    <g
       id="g461" />
    <g
       id="g463" />
    <g
       id="g465" />
    <g
       id="g467" />
    <g
       id="g469" />
    <g
       id="g471" />
    <g
       id="g473" />
    <g
       id="g475" />
    <g
       id="g477" />
    <g
       id="g479" />
    <g
       id="g481" />
    <g
       id="g483" />
    <g
       id="g485" />
    <g
       id="g487" />
    <g
       id="g489" />
    <g
       id="g491" />
    <g
       id="g493" />
    <g
       id="g495" />
  </g>
  <g
     style="fill:#000000; fill-opacity:0.0;  stroke:#000000; stroke-width:0.0000; stroke-opacity:1;  stroke-linecap:round; stroke-linejoin:round;"
     id="g499" />
  <g
     style="fill:#000000;fill-opacity:0;stroke:#000000;stroke-width:0.05;stroke-linecap:round;stroke-linejoin:round;stroke-opacity:1"
     id="g823"
     transform="matrix(0.58796181,0,0,0.58796181,13.593305,10.648089)">
    <path
       d="M 46.708,8.075 V 7.825"
       id="path501" />
    <path
       d="m 46.708,7.825 h -0.25"
       id="path503" />
    <path
       d="m 39.208,17.325 v -0.25"
       id="path505" />
    <path
       d="m 46.458,17.325 h 0.25"
       id="path507" />
    <path
       d="m 39.208,7.825 h 0.25"
       id="path509" />
    <path
       d="m 39.458,17.325 h -0.25"
       id="path511" />
    <path
       d="m 39.208,17.075 v -9"
       id="path513" />
    <path
       d="M 39.208,8.075 V 7.825"
       id="path515" />
    <path
       d="m 39.458,7.825 h 7"
       id="path517" />
    <path
       d="m 46.708,8.075 v 9"
       id="path519" />
    <path
       d="m 46.708,17.325 v -0.25"
       id="path521" />
    <path
       d="m 46.458,17.325 h -7"
       id="path523" />
    <path
       d="m 64.512,17.325 h -7"
       id="path525" />
    <path
       d="m 64.762,17.325 v -0.25"
       id="path527" />
    <path
       d="m 64.762,8.075 v 9"
       id="path529" />
    <path
       d="m 57.512,7.825 h 7"
       id="path531" />
    <path
       d="M 57.262,8.075 V 7.825"
       id="path533" />
    <path
       d="m 57.262,17.075 v -9"
       id="path535" />
    <path
       d="m 57.512,17.325 h -0.25"
       id="path537" />
    <path
       d="m 57.262,7.825 h 0.25"
       id="path539" />
    <path
       d="m 64.512,17.325 h 0.25"
       id="path541" />
    <path
       d="m 57.262,17.325 v -0.25"
       id="path543" />
    <path
       d="m 64.762,7.825 h -0.25"
       id="path545" />
    <path
       d="M 64.762,8.075 V 7.825"
       id="path547" />
    <path
       d="m 55.485,17.325 h -7"
       id="path549" />
    <path
       d="m 55.735,17.325 v -0.25"
       id="path551" />
    <path
       d="m 55.735,8.075 v 9"
       id="path553" />
    <path
       d="m 48.485,7.825 h 7"
       id="path555" />
    <path
       d="M 48.235,8.075 V 7.825"
       id="path557" />
    <path
       d="m 48.235,17.075 v -9"
       id="path559" />
    <path
       d="m 48.485,17.325 h -0.25"
       id="path561" />
    <path
       d="m 48.235,7.825 h 0.25"
       id="path563" />
    <path
       d="m 55.485,17.325 h 0.25"
       id="path565" />
    <path
       d="m 48.235,17.325 v -0.25"
       id="path567" />
    <path
       d="m 55.735,7.825 h -0.25"
       id="path569" />
    <path
       d="M 55.735,8.075 V 7.825"
       id="path571" />
    <path
       d="M 37.681,8.075 V 7.825"
       id="path573" />
    <path
       d="m 37.681,7.825 h -0.25"
       id="path575" />
    <path
       d="m 30.181,17.325 v -0.25"
       id="path577" />
    <path
       d="m 37.431,17.325 h 0.25"
       id="path579" />
    <path
       d="m 30.181,7.825 h 0.25"
       id="path581" />
    <path
       d="m 30.431,17.325 h -0.25"
       id="path583" />
    <path
       d="m 30.181,17.075 v -9"
       id="path585" />
    <path
       d="M 30.181,8.075 V 7.825"
       id="path587" />
    <path
       d="m 30.431,7.825 h 7"
       id="path589" />
    <path
       d="m 37.681,8.075 v 9"
       id="path591" />
    <path
       d="m 37.681,17.325 v -0.25"
       id="path593" />
    <path
       d="m 37.431,17.325 h -7"
       id="path595" />
    <path
       d="M 28.654,8.075 V 7.825"
       id="path597" />
    <path
       d="m 28.654,7.825 h -0.25"
       id="path599" />
    <path
       d="m 21.154,17.325 v -0.25"
       id="path601" />
    <path
       d="m 28.404,17.325 h 0.25"
       id="path603" />
    <path
       d="m 21.154,7.825 h 0.25"
       id="path605" />
    <path
       d="m 21.404,17.325 h -0.25"
       id="path607" />
    <path
       d="m 21.154,17.075 v -9"
       id="path609" />
    <path
       d="M 21.154,8.075 V 7.825"
       id="path611" />
    <path
       d="m 21.404,7.825 h 7"
       id="path613" />
    <path
       d="m 28.654,8.075 v 9"
       id="path615" />
    <path
       d="m 28.654,17.325 v -0.25"
       id="path617" />
    <path
       d="m 28.404,17.325 h -7"
       id="path619" />
    <path
       d="m 19.377,17.325 h -7"
       id="path621" />
    <path
       d="m 19.627,17.325 v -0.25"
       id="path623" />
    <path
       d="m 19.627,8.075 v 9"
       id="path625" />
    <path
       d="m 12.377,7.825 h 7"
       id="path627" />
    <path
       d="M 12.127,8.075 V 7.825"
       id="path629" />
    <path
       d="m 12.127,17.075 v -9"
       id="path631" />
    <path
       d="m 12.377,17.325 h -0.25"
       id="path633" />
    <path
       d="m 12.127,7.825 h 0.25"
       id="path635" />
    <path
       d="m 19.377,17.325 h 0.25"
       id="path637" />
    <path
       d="m 12.127,17.325 v -0.25"
       id="path639" />
    <path
       d="m 19.627,7.825 h -0.25"
       id="path641" />
    <path
       d="M 19.627,8.075 V 7.825"
       id="path643" />
    <path
       d="m 0.265,22.605 h 8.6"
       id="path645" />
    <path
       d="m 8.865,0.605 h -8.6"
       id="path647" />
    <path
       d="m 8.865,22.605 v -22"
       id="path649" />
    <path
       d="m 0.265,0.605 v 22"
       id="path651" />
    <path
       d="m 52.205,36.645 v 3"
       id="path653" />
    <path
       d="m 52.205,39.645 h 12.26"
       id="path655" />
    <path
       d="M 64.465,36.645 H 52.205"
       id="path657" />
    <path
       d="m 64.465,39.645 v -3"
       id="path659" />
    <path
       d="m 64.465,44.44 v -3"
       id="path661" />
    <path
       d="M 64.465,41.44 H 52.205"
       id="path663" />
    <path
       d="m 52.205,44.44 h 12.26"
       id="path665" />
    <path
       d="m 52.205,41.44 v 3"
       id="path667" />
    <path
       d="m 44.2775,39.645 v -3"
       id="path669" />
    <path
       d="m 44.2775,36.645 h -12.26"
       id="path671" />
    <path
       d="m 32.0175,39.645 h 12.26"
       id="path673" />
    <path
       d="m 32.0175,36.645 v 3"
       id="path675" />
    <path
       d="m 44.2775,44.44 v -3"
       id="path677" />
    <path
       d="m 44.2775,41.44 h -12.26"
       id="path679" />
    <path
       d="m 32.0175,44.44 h 12.26"
       id="path681" />
    <path
       d="m 32.0175,41.44 v 3"
       id="path683" />
    <path
       d="m 11.83,36.645 v 3"
       id="path685" />
    <path
       d="M 11.83,39.645 H 24.09"
       id="path687" />
    <path
       d="M 24.09,36.645 H 11.83"
       id="path689" />
    <path
       d="m 24.09,39.645 v -3"
       id="path691" />
    <path
       d="m 64.465,27.36 h -6.45"
       id="path693" />
    <path
       d="m 64.465,33.86 v -6.5"
       id="path695" />
    <path
       d="m 58.015,27.36 v 6.5"
       id="path697" />
    <path
       d="m 58.015,33.86 h 6.45"
       id="path699" />
    <path
       d="m 48.878,33.86 h 6.45"
       id="path701" />
    <path
       d="m 48.878,27.36 v 6.5"
       id="path703" />
    <path
       d="m 55.328,33.86 v -6.5"
       id="path705" />
    <path
       d="m 55.328,27.36 h -6.45"
       id="path707" />
    <path
       d="m 46.191,27.36 h -6.45"
       id="path709" />
    <path
       d="m 46.191,33.86 v -6.5"
       id="path711" />
    <path
       d="m 39.741,27.36 v 6.5"
       id="path713" />
    <path
       d="m 39.741,33.86 h 6.45"
       id="path715" />
    <path
       d="m 30.604,33.86 h 6.45"
       id="path717" />
    <path
       d="m 30.604,27.36 v 6.5"
       id="path719" />
    <path
       d="m 37.054,33.86 v -6.5"
       id="path721" />
    <path
       d="m 37.054,27.36 h -6.45"
       id="path723" />
    <path
       d="m 27.917,27.36 h -6.45"
       id="path725" />
    <path
       d="m 27.917,33.86 v -6.5"
       id="path727" />
    <path
       d="m 21.467,27.36 v 6.5"
       id="path729" />
    <path
       d="m 21.467,33.86 h 6.45"
       id="path731" />
    <path
       d="m 0.265,52.995 h 8.6"
       id="path733" />
    <path
       d="m 8.865,30.995 h -8.6"
       id="path735" />
    <path
       d="m 8.865,52.995 v -22"
       id="path737" />
    <path
       d="m 0.265,30.995 v 22"
       id="path739" />
    <path
       d="m 24.09,44.44 v -3"
       id="path741" />
    <path
       d="M 24.09,41.44 H 11.83"
       id="path743" />
    <path
       d="M 11.83,44.44 H 24.09"
       id="path745" />
    <path
       d="m 11.83,41.44 v 3"
       id="path747" />
    <path
       d="m 12.33,33.86 h 6.45"
       id="path749" />
    <path
       d="m 12.33,27.36 v 6.5"
       id="path751" />
    <path
       d="m 18.78,33.86 v -6.5"
       id="path753" />
    <path
       d="M 18.78,27.36 H 12.33"
       id="path755" />
    <circle
       cx="66.114998"
       cy="45.794998"
       r="1.7"
       id="circle757" />
    <circle
       cx="15.315"
       cy="2.615"
       r="1.7"
       id="circle759" />
    <circle
       cx="14.045"
       cy="50.875"
       r="1.7"
       id="circle761" />
    <g
       id="g763" />
    <g
       id="g765" />
    <g
       id="g767" />
    <g
       id="g769" />
    <g
       id="g771" />
    <g
       id="g773" />
    <g
       id="g775" />
    <g
       id="g777" />
    <g
       id="g779" />
    <g
       id="g781" />
    <g
       id="g783" />
    <g
       id="g785" />
    <g
       id="g787" />
    <g
       id="g789" />
    <g
       id="g791" />
    <g
       id="g793" />
    <g
       id="g795" />
    <g
       id="g797" />
    <g
       id="g799" />
    <g
       id="g801" />
    <g
       id="g803" />
    <g
       id="g805" />
    <g
       id="g807" />
    <g
       id="g809" />
    <g
       id="g811" />
    <g
       id="g813" />
    <g
       id="g815" />
    <g
       id="g817" />
    <g
       id="g819" />
    <g
       id="g821" />
  </g>
  <g
     style="fill:#000000; fill-opacity:0.0;  stroke:#000000; stroke-width:0.0500; stroke-opacity:1;  stroke-linecap:round; stroke-linejoin:round;"
     id="g825" />
  <g
     style="fill:#000000;fill-opacity:0;stroke:#000000;stroke-width:0.15;stroke-linecap:round;stroke-linejoin:round;stroke-opacity:1"
     id="g911"
     transform="matrix(0.58796181,0,0,0.58796181,13.593305,10.648089)">
    <path
       d="m 66.115,12.775 2.54,2.54"
       id="path827" />
    <path
       d="M 0.075,52.653 V 0.837"
       id="path829" />
    <path
       d="m 68.655,15.315 v 34.29"
       id="path831" />
    <path
       d="M 65.353,53.415 H 0.837"
       id="path833" />
    <path
       d="M 0.837,0.075 H 63.575"
       id="path835" />
    <path
       d="m 0.075,52.653 a 0.762,0.762 0 0 0 0.762,0.762"
       id="path837" />
    <path
       d="m 68.655,49.605 -2.54,2.54"
       id="path839" />
    <path
       d="m 63.575,0.075 2.54,2.54"
       id="path841" />
    <path
       d="m 65.353,53.415 a 0.762,0.762 0 0 0 0.762,-0.762"
       id="path843" />
    <path
       d="m 66.115,2.615 v 10.16"
       id="path845" />
    <path
       d="m 66.115,52.145 v 0.508"
       id="path847" />
    <path
       d="M 0.837,0.075 A 0.762,0.762 0 0 0 0.075,0.837"
       id="path849" />
    <g
       id="g851" />
    <g
       id="g853" />
    <g
       id="g855" />
    <g
       id="g857" />
    <g
       id="g859" />
    <g
       id="g861" />
    <g
       id="g863" />
    <g
       id="g865" />
    <g
       id="g867" />
    <g
       id="g869" />
    <g
       id="g871" />
    <g
       id="g873" />
    <g
       id="g875" />
    <g
       id="g877" />
    <g
       id="g879" />
    <g
       id="g881" />
    <g
       id="g883" />
    <g
       id="g885" />
    <g
       id="g887" />
    <g
       id="g889" />
    <g
       id="g891" />
    <g
       id="g893" />
    <g
       id="g895" />
    <g
       id="g897" />
    <g
       id="g899" />
    <g
       id="g901" />
    <g
       id="g903" />
    <g
       id="g905" />
    <g
       id="g907" />
    <g
       id="g909" />
  </g>
</svg>
